X:105
T:Jenny's Wedding
M:C
L:1/8
K:D Mixolydian
B,|D2FD ADFD|Adde fded|cAAB c3d|eaag ed^cd|!
D2FA defd|cAAB cdeg|fde^c d2=cA|BdAG FDD:|!
K:D Major
A|d2fd adfd|edcd efge|d2fd adfd|cdeg fddA|!
d2fd adfd|cdef g2fg|afge fdec|dBAG FDD:|!
